X:18
T: E BISSELE LIEB
N: E1015
O: Europa, Mitteleuropa, Deutschland, Bayern, Schwaben
R: Tanz - Lied; Liebe, Eifersucht
M: 3/8
L: 1/16
K: G
G2 | B2B3c | e2d2z
d | d2c3c | c2B2
Bc | B2A2A2 | A2G3
G | AcF2F2 | G4

